src/javelin/apps/shieldcommand/static/shieldcommand/fonts/icomoon.svg

<?xml version="1.0" standalone="no"?>
<!DOCTYPE svg PUBLIC "-//W3C//DTD SVG 1.1//EN" "http://www.w3.org/Graphics/SVG/1.1/DTD/svg11.dtd" >
<svg xmlns="http://www.w3.org/2000/svg">
<metadata>Generated by IcoMoon</metadata>
<defs>
<font id="icomoon" horiz-adv-x="512">
<font-face units-per-em="512" ascent="480" descent="-32" />
<missing-glyph horiz-adv-x="512" />
<glyph unicode="&#x20;" d="" horiz-adv-x="256" />
<glyph unicode="&#xe000;" d="M432 416l-240-240-112 112-80-80 192-192 320 320z" />
<glyph unicode="&#xe001;" d="M177.024 358.464h270.827v-57.877h-270.827zM64.021 358.464h63.51v-57.877h-63.51zM177.024 256.597h270.827v-57.728h-270.827zM64.021 256.597h63.51v-57.728h-63.51zM177.024 154.837h270.827v-57.685h-270.827zM64.021 154.837h63.51v-57.685h-63.51z" />
<glyph unicode="&#xe002;" d="M256.057 479.772c-141.113 0-255.915-114.744-255.915-255.772s114.802-255.772 255.915-255.772c141.056 0 255.801 114.716 255.801 255.772 0 141.028-114.745 255.772-255.801 255.772zM279.012 15.445v78.848h-45.91v-78.848c-97.508 10.638-175.104 88.206-185.771 185.628h83.57v45.882h-83.541c10.667 97.422 88.263 174.962 185.771 185.6v-82.375h45.881v82.375c97.451-10.638 174.99-88.178 185.657-185.6h-82.034v-45.881h82.034c-10.667-97.422-88.235-174.962-185.657-185.629z" />
<glyph unicode="&#xe003;" d="M64.619 232.448l383.381 183.701-211.733-384.32 12.544 192.192z" />
<glyph unicode="&#xe004;" d="M256 416c-106.048 0-192-85.888-192-192s85.952-192 192-192 192 85.888 192 192-85.952 192-192 192zM256 48.107c-97.173 0-176.021 78.656-176.021 175.893s78.848 176.021 176.021 176.021c97.131 0 175.893-78.784 175.893-176.021 0-97.259-78.762-175.893-175.893-175.893zM240.149 312.619h31.808v-177.323h-31.808zM167.403 239.829h177.237v-31.808h-177.237z" />
<glyph unicode="&#xe005;" d="M256 416c-106.048 0-192-85.888-192-192s85.952-192 192-192 192 85.867 192 192c0 106.091-85.952 192-192 192zM256 48.085c-97.173 0-176.021 78.677-176.021 175.915s78.848 176.021 176.021 176.021c97.131 0 175.893-78.784 175.893-176.021s-78.762-175.915-175.893-175.915zM256 298.667c-44.907 0-81.28-29.781-81.28-69.227 0-20.992 10.517-39.317 27.115-51.904v-44.843l40.448 28.672c4.416-0.704 9.088-0.917 13.717-0.917 44.907 0 81.28 29.76 81.28 68.992 0 39.445-36.373 69.227-81.28 69.227z" />
<glyph unicode="&#xe006;" d="M440.683 108.608l-158.912 259.584c-14.208 24.533-37.397 24.981-51.563 0.448l-158.869-260.224c-14.315-24.597-2.667-47.253 25.749-47.253h317.845c28.288 0 40.086 22.89 25.75 47.445zM278.997 99.797h-46.101v45.888h46.101v-45.888zM278.997 256.853l-12.096-96.107h-19.925l-14.080 96.107v50.475h46.101v-50.475z" />
<glyph unicode="&#xe007;" d="M387.093 295.915l32.747 32.853-31.787 31.744-32.768-32.875c-23.979 18.091-52.843 30.059-84.352 32.875v25.408h14.955v29.995h-59.84v-29.995h15.019v-25.408c-83.925-7.616-149.611-77.995-149.611-163.84 0-90.944 73.621-164.608 164.48-164.651 90.88 0 164.651 73.707 164.651 164.587 0.021 37.397-12.566 71.659-33.494 99.307zM255.957 70.656c-69.504 0-125.909 56.448-125.909 126.016 0 69.44 56.405 125.995 125.909 125.995s126.059-56.619 126.059-126.059c0-69.525-56.555-125.952-126.059-125.952zM255.957 302.976c-58.816 0-106.688-47.808-106.688-106.795 0-58.88 47.872-106.688 106.688-106.688 58.944 0 106.901 47.808 106.901 106.688 0.001 58.966-47.978 106.795-106.901 106.795zM266.411 177.067v-14.677h-20.821l-0.001 14.677c-7.659 3.691-13.76 12.629-13.76 21.589 0 8.811 6.144 18.581 14.293 21.803l0.001 50.517h19.797v-50.517c8.427-3.392 14.251-13.013 14.251-21.803 0-8.96-5.824-17.899-13.76-21.589z" />
<glyph unicode="&#xe008;" d="M255.872 415.573c-105.792 0-191.424-68.843-191.424-159.723 0-48.683 24.555-91.072 63.765-119.808v-103.595l95.531 65.963c10.389-1.323 21.141-2.197 32.128-2.197 105.92 0 191.68 68.821 191.68 159.637 0 90.881-85.76 159.723-191.68 159.723zM362.773 287.296h-221.248v14.485h221.248v-14.485zM362.773 318.891h-221.248v14.528h221.248v-14.528z" />
<glyph unicode="&#xe009;" d="M512 224c0 141.385-114.615 256-256 256s-256-114.615-256-256c0-110.027 69.418-203.832 166.843-240.034l-6.843-15.966h192l-6.843 15.966c97.425 36.202 166.843 130.007 166.843 240.034zM243.395 162.587c-11.404 4.894-19.395 16.218-19.395 29.413 0 17.673 14.327 32 32 32s32-14.327 32-32c0-13.195-7.989-24.522-19.393-29.417l-12.607 29.417-12.605-29.413zM269.134 161.354c29.046 6.059 50.866 31.801 50.866 62.646 0 35.347-28.653 64-64 64s-64-28.653-64-64c0-30.846 21.831-56.561 50.88-62.614l-37.312-87.061c-45.615 19.575-77.568 64.892-77.568 117.675 0 70.692 57.308 134 128 134s128-63.308 128-134c0-52.783-31.953-98.1-77.568-117.675l-37.298 87.029zM344.224-13.854l-36.962 86.243c63.223 21.369 108.738 81.173 108.738 151.611 0 88.365-71.634 160-160 160s-160-71.635-160-160c0-70.438 45.515-130.242 108.738-151.611l-36.962-86.243c-79.797 34.244-135.693 113.517-135.693 205.854 0 123.666 100.251 229.917 223.917 229.917s223.917-106.251 223.917-229.917c0-92.337-55.896-171.61-135.693-205.854z" />
</font></defs></svg>

<?xml version="1.0" standalone="no"?>
<!DOCTYPE svg PUBLIC "-//W3C//DTD SVG 1.1//EN" "http://www.w3.org/Graphics/SVG/1.1/DTD/svg11.dtd" >
<svg xmlns="http://www.w3.org/2000/svg">
<metadata>
This is a custom SVG font generated by IcoMoon.
<iconset grid="16"></iconset>
</metadata>
<defs>
<font id="icomoon" horiz-adv-x="512" >
<font-face units-per-em="512" ascent="480" descent="-32" />
<missing-glyph horiz-adv-x="512" />
<glyph class="hidden" unicode="&#xf000;" d="M0,480L 512 -32L0 -32 z" horiz-adv-x="0" />
<glyph unicode="&#xe000;" d="M 432,416L 192,176L 80,288L0,208L 192,16L 512,336 z"  />
<glyph unicode="&#xe003;" d="M 64.619,232.448L 448,416.149L 236.267,31.829L 248.811,224.021 z"  />
<glyph unicode="&#xe004;" d="M 256,416c-106.048,0-192-85.888-192-192s 85.952-192, 192-192s 192,85.888, 192,192S 362.048,416, 256,416z M 256,48.107
				c-97.173,0-176.021,78.656-176.021,175.893c0,97.237, 78.848,176.021, 176.021,176.021c 97.131,0, 175.893-78.784, 175.893-176.021
				C 431.893,126.741, 353.131,48.107, 256,48.107zM 240.149,312.619L 271.957,312.619L 271.957,135.296L 240.149,135.296zM 167.403,239.829L 344.64,239.829L 344.64,208.021L 167.403,208.021z"  />
<glyph unicode="&#xe005;" d="M 256,416c-106.048,0-192-85.888-192-192c0-106.112, 85.952-192, 192-192s 192,85.867, 192,192C 448,330.091, 362.048,416, 256,416z M 256,48.085
				c-97.173,0-176.021,78.677-176.021,175.915S 158.827,400.021, 256,400.021c 97.131,0, 175.893-78.784, 175.893-176.021S 353.131,48.085, 256,48.085zM 256,298.667c-44.907,0-81.28-29.781-81.28-69.227c0-20.992, 10.517-39.317, 27.115-51.904l0-44.843 l 40.448,28.672
		c 4.416-0.704, 9.088-0.917, 13.717-0.917c 44.907,0, 81.28,29.76, 81.28,68.992C 337.28,268.885, 300.907,298.667, 256,298.667z"  />
<glyph unicode="&#xe006;" d="M 440.683,108.608L 281.771,368.192c-14.208,24.533-37.397,24.981-51.563,0.448L 71.339,108.416c-14.315-24.597-2.667-47.253, 25.749-47.253L 414.933,61.163 
	C 443.221,61.163, 455.019,84.053, 440.683,108.608z M 278.997,99.797l-46.101,0 l0,45.888 l 46.101,0 L 278.997,99.797 z M 278.997,256.853l-12.096-96.107l-19.925,0 
	l-14.080,96.107L 232.896,307.328 l 46.101,0 L 278.997,256.853 z"  />
<glyph unicode="&#xe007;" d="M 387.093,295.915l 32.747,32.853l-31.787,31.744l-32.768-32.875c-23.979,18.091-52.843,30.059-84.352,32.875L 270.933,385.92 l 14.955,0 L 285.888,415.915 l-59.84,0 L 226.048,385.92 
			L 241.067,385.92 l0-25.408 c-83.925-7.616-149.611-77.995-149.611-163.84c0-90.944, 73.621-164.608, 164.48-164.651c 90.88,0, 164.651,73.707, 164.651,164.587
			C 420.608,234.005, 408.021,268.267, 387.093,295.915z M 255.957,70.656c-69.504,0-125.909,56.448-125.909,126.016c0,69.44, 56.405,125.995, 125.909,125.995
			c 69.504,0, 126.059-56.619, 126.059-126.059C 382.016,127.083, 325.461,70.656, 255.957,70.656zM 255.957,302.976c-58.816,0-106.688-47.808-106.688-106.795c0-58.88, 47.872-106.688, 106.688-106.688c 58.944,0, 106.901,47.808, 106.901,106.688
			C 362.859,255.147, 314.88,302.976, 255.957,302.976z M 266.411,177.067l0-14.677 l-20.821,0 L 245.589,177.067 c-7.659,3.691-13.76,12.629-13.76,21.589
			c0,8.811, 6.144,18.581, 14.293,21.803L 246.123,270.976 l 19.797,0 l0-50.517 c 8.427-3.392, 14.251-13.013, 14.251-21.803C 280.171,189.696, 274.347,180.757, 266.411,177.067z"  />
<glyph unicode="&#xe008;" d="M 255.872,415.573c-105.792,0-191.424-68.843-191.424-159.723c0-48.683, 24.555-91.072, 63.765-119.808l0-103.595 l 95.531,65.963
	c 10.389-1.323, 21.141-2.197, 32.128-2.197c 105.92,0, 191.68,68.821, 191.68,159.637C 447.552,346.731, 361.792,415.573, 255.872,415.573z M 362.773,287.296L 141.525,287.296 
	L 141.525,301.781 l 221.248,0 L 362.773,287.296 z M 362.773,318.891L 141.525,318.891 L 141.525,333.419 l 221.248,0 L 362.773,318.891 z"  />
<glyph unicode="&#xe001;" d="M 177.024,358.464L 447.851,358.464L 447.851,300.587L 177.024,300.587zM 64.021,358.464L 127.531,358.464L 127.531,300.587L 64.021,300.587zM 177.024,256.597L 447.851,256.597L 447.851,198.869L 177.024,198.869zM 64.021,256.597L 127.531,256.597L 127.531,198.869L 64.021,198.869zM 177.024,154.837L 447.851,154.837L 447.851,97.152L 177.024,97.152zM 64.021,154.837L 127.531,154.837L 127.531,97.152L 64.021,97.152z"  />
<glyph unicode="&#xe002;" d="M 256.057,479.772C 114.944,479.772, 0.142,365.028, 0.142,224c0-141.028, 114.802-255.772, 255.915-255.772
	c 141.056,0, 255.801,114.716, 255.801,255.772C 511.858,365.028, 397.113,479.772, 256.057,479.772z M 279.012,15.445L 279.012,94.293 L 233.102,94.293 l0-78.848 
	c-97.508,10.638-175.104,88.206-185.771,185.628l 83.57,0 L 130.901,246.955 L 47.36,246.955 c 10.667,97.422, 88.263,174.962, 185.771,185.6l0-82.375 l 45.881,0 L 279.012,432.555 
	c 97.451-10.638, 174.99-88.178, 185.657-185.6l-82.034,0 l0-45.881 l 82.034,0 C 454.002,103.652, 376.434,26.112, 279.012,15.445z"  />
<glyph unicode="&#x20;" horiz-adv-x="256" />
</font></defs></svg>
